X:1
T:The Diamond -- Jig
R:jig
N: The D Minor stat:ement over the first bar does not agree with the
N: one sharp key signiture.
B:Ryan's Mammoth Collection
Z:Contributed by Ray Davies. ray:davies99.freeserve.co.uk 29june02
M:6/8
L:1/8
K:Dmix %D Minor?
"D MINOR"K(E/F/)|AFD DEF|A2G ABc|AGE cEE|ECD EFG|\
AFD DFG|A2G ABc|GFE cEE|EDD D2::
KA|d2e =f2d|e2d dcA|AGE cEE|GAG GAB|\
d2e =f2d|e2d dcA|GFE cEE|EDD D2:|
